src/assets/outline/Radar2.svg

<?xml version="1.0" encoding="UTF-8"?>
<svg width="24" height="24" viewBox="0 0 24 24" xmlns="http://www.w3.org/2000/svg">
 <path d="m12 22.75c-5.93 0-10.75-4.82-10.75-10.75 0-1.88 0.48999-3.7299 1.43-5.3599 0.21-0.36 0.66002-0.48003 1.02-0.28003l8.67 4.98c0.36 0.21 0.48 0.66 0.28 1.02-0.21 0.36-0.66 0.4801-1.02 0.2801l-8-4.5901c-0.58 1.23-0.88 2.57-0.88 3.94 0 5.1 4.15 9.25 9.25 9.25s9.25-4.15 9.25-9.25c0-5.1-4.15-9.25-9.25-9.25-2.02 0-3.94 0.64001-5.55 1.85-0.33 0.25-0.80002 0.18001-1.05-0.14999s-0.18-0.79999 0.15-1.05c1.87-1.4 4.1-2.15 6.45-2.15 5.93 0 10.75 4.82 10.75 10.75 0 5.93-4.82 10.76-10.75 10.76z"/>
 <path d="m12 18.75c-3.72 0-6.75-3.03-6.75-6.75 0-1.2 0.31999-2.39 0.92999-3.42 0.21-0.36 0.67-0.47999 1.03-0.26999s0.48002 0.67 0.27002 1.03c-0.47 0.8-0.72 1.72-0.72 2.66 0 2.9 2.36 5.25 5.25 5.25 2.89 0 5.25-2.35 5.25-5.25s-2.36-5.25-5.25-5.25c-0.78 0-1.53 0.17-2.24 0.5-0.38 0.17-0.82 0.01001-1-0.35999-0.18-0.38-0.01999-0.82 0.36001-1 0.9-0.42 1.87-0.64001 2.87-0.64001 3.72 0 6.75 3.03 6.75 6.75s-3.03 6.75-6.75 6.75z"/>
</svg>

<svg width="24" height="24" viewBox="0 0 24 24"  xmlns="http://www.w3.org/2000/svg">
<path d="M12 22.7502C6.07 22.7502 1.25 17.9302 1.25 12.0002C1.25 10.1202 1.73999 8.27026 2.67999 6.64026C2.88999 6.28026 3.34001 6.16023 3.70001 6.36023L12.37 11.3402C12.73 11.5502 12.85 12.0002 12.65 12.3602C12.44 12.7202 11.99 12.8403 11.63 12.6403L3.63 8.05023C3.05 9.28023 2.75 10.6202 2.75 11.9902C2.75 17.0902 6.9 21.2402 12 21.2402C17.1 21.2402 21.25 17.0902 21.25 11.9902C21.25 6.89023 17.1 2.74023 12 2.74023C9.98 2.74023 8.06001 3.38024 6.45001 4.59024C6.12001 4.84024 5.64999 4.77025 5.39999 4.44025C5.14999 4.11025 5.21999 3.64026 5.54999 3.39026C7.41999 1.99026 9.65 1.24023 12 1.24023C17.93 1.24023 22.75 6.06023 22.75 11.9902C22.75 17.9202 17.93 22.7502 12 22.7502Z" />
<path d="M12 18.75C8.28 18.75 5.25 15.72 5.25 12C5.25 10.8 5.56999 9.60999 6.17999 8.57999C6.38999 8.21999 6.84999 8.1 7.20999 8.31C7.56999 8.52 7.69001 8.98 7.48001 9.34C7.01001 10.14 6.76001 11.06 6.76001 12C6.76001 14.9 9.12001 17.25 12.01 17.25C14.9 17.25 17.26 14.9 17.26 12C17.26 9.1 14.9 6.75 12.01 6.75C11.23 6.75 10.48 6.92 9.76999 7.25C9.38999 7.42 8.94999 7.26001 8.76999 6.89001C8.58999 6.51001 8.75 6.07001 9.13 5.89001C10.03 5.47001 11 5.25 12 5.25C15.72 5.25 18.75 8.28 18.75 12C18.75 15.72 15.72 18.75 12 18.75Z" />
</svg>
